X: 1
T:Jenny Picking Cockles
R:reel
H:See also #3, #528, #774.
H:Related to "Jenny's Welcome to Charlie", #47.
D:Paddy Glackin: In Full Spate
Z:id:hn-reel-427
M:C|
K:Dmix
Addc AGEA|GEcE dEcE|Addc AGEA|GEcE EDD2:|
=f3g efed|^cAAB cdeg|=f2fg ed^cd|eaag edde|
~^f3d efed|^cAAB cdeg|fde^c AGEA|GEcE EDD2||
